svg/material_design.svg

<svg xmlns="http://www.w3.org/2000/svg" viewBox="0 0 24 24"><path d="M21 12c0-2.03-.67-3.91-2-5.62v11.25c1.33-1.66 2-3.54 2-5.63m-3.37 7H6.38c.68.55 1.57 1 2.67 1.41 1.09.39 2.08.59 2.95.59.88 0 1.86-.2 2.95-.59 1.1-.41 1.99-.86 2.68-1.41M11 17 7 9v8zm6-8-4 8h4zm-5 5.53L15.75 7h-7.5zM17.63 5C15.97 3.67 14.09 3 12 3s-3.97.67-5.62 2zM5 17.63V6.38C3.67 8.09 3 9.97 3 12c0 2.09.67 3.97 2 5.63M23 12c0 3.03-1.06 5.63-3.22 7.78C17.63 21.94 15.03 23 12 23s-5.62-1.06-7.78-3.22C2.06 17.63 1 15.03 1 12s1.06-5.62 3.22-7.78S8.97 1 12 1s5.63 1.06 7.78 3.22C21.94 6.38 23 8.97 23 12"/></svg>

<?xml version="1.0" encoding="UTF-8"?><!DOCTYPE svg PUBLIC "-//W3C//DTD SVG 1.1//EN" "http://www.w3.org/Graphics/SVG/1.1/DTD/svg11.dtd"><svg xmlns="http://www.w3.org/2000/svg" xmlns:xlink="http://www.w3.org/1999/xlink" version="1.1" id="mdi-material-design" width="24" height="24" viewBox="0 0 24 24"><path d="M21,12C21,9.97 20.33,8.09 19,6.38V17.63C20.33,15.97 21,14.09 21,12M17.63,19H6.38C7.06,19.55 7.95,20 9.05,20.41C10.14,20.8 11.13,21 12,21C12.88,21 13.86,20.8 14.95,20.41C16.05,20 16.94,19.55 17.63,19M11,17L7,9V17H11M17,9L13,17H17V9M12,14.53L15.75,7H8.25L12,14.53M17.63,5C15.97,3.67 14.09,3 12,3C9.91,3 8.03,3.67 6.38,5H17.63M5,17.63V6.38C3.67,8.09 3,9.97 3,12C3,14.09 3.67,15.97 5,17.63M23,12C23,15.03 21.94,17.63 19.78,19.78C17.63,21.94 15.03,23 12,23C8.97,23 6.38,21.94 4.22,19.78C2.06,17.63 1,15.03 1,12C1,8.97 2.06,6.38 4.22,4.22C6.38,2.06 8.97,1 12,1C15.03,1 17.63,2.06 19.78,4.22C21.94,6.38 23,8.97 23,12Z" /></svg>
